X:1
T:Title
%%score ( 1 2 ) 3
L:1/8
M:4/4
K:F
V:1 treble nm="Choir Aahs, Staff"
V:2 treble 
V:3 bass nm="Choir Aahs, Staff-1"
V:1
 [CF]3 [CG] [CA]2 [CF]2 | [DG]2 [CE]2 [CF]4 | [Fc]2 [Fc]2 [Fd]2 AB | [Fc]2 [Ec]2 [FA]4 | %4
w: By~Medieval~French~Traditional * * *||||
 [FA]2 [CG]2 [FB]2 [FA]2 | [DG]2 D-[DG] [EA]4 | [Fc]3 [FB] [EA]2 [DF]2 | [DG]2 [CE]2 [CF]4 |] %8
w: ||||
V:2
 x8 | x8 | z4 z2 F2 | x8 | x8 | z2 .F2 z4 | x8 | x8 |] %8
V:3
 [F,A,]3 [F,B,] [F,C]2 [A,,C]2 | [B,,B,]2 [C,G,]2 [F,A,]4 | [F,A,]2 [F,A,]2 [B,,B,]2 [D,F,]2 | %3
 [C,G,]2 [C,G,]2 [F,A,]4 | [F,C]2 [E,C]2 [D,B,]2 [C,C]2 | [B,,D]2 [B,,D]2 [A,,^C]4 | %6
 [A,,C]3 [B,,D] [C,C]2 [D,A,]2 | [B,,B,]2 [C,G,]2 [F,A,]4 |] %8

